src/images/logo.svg

<svg width="64" height="46" viewBox="0 0 64 46" fill="none" xmlns="http://www.w3.org/2000/svg">
<path d="M13.6756 1.76471V19.0294C13.6952 19.5392 13.882 19.9706 14.2357 20.3235C14.6091 20.6765 15.0513 20.8529 15.5623 20.8529H15.9161L15.9455 21.1471H6.9837V20.8529H7.36693C7.85826 20.8529 8.28081 20.6765 8.63456 20.3235C9.00797 19.9706 9.21433 19.549 9.25364 19.0588V1.76471H5.27387C4.36983 1.78431 3.65249 2.06863 3.12186 2.61765C2.59122 3.16667 2.3259 3.88235 2.3259 4.76471V5.11765H2.03111V0C2.83689 0.333334 3.99642 0.509804 5.50971 0.529412H17.39C17.9993 0.529412 18.6577 0.470589 19.3652 0.352942C20.0923 0.235294 20.5935 0.117647 20.8686 0V5.11765H20.5738V4.76471C20.5738 3.54902 20.112 2.68628 19.1883 2.17647C18.7559 1.92157 18.2351 1.78431 17.6259 1.76471H13.6756Z" fill="white"/>
<path d="M35.7416 20.8529C36.2526 20.8529 36.6457 20.7255 36.9208 20.4706C37.3728 20.0196 37.6087 19.5392 37.6283 19.0294V11.5294H28.0769V19C28.0769 19.5098 28.2636 19.951 28.637 20.3235C29.0104 20.6765 29.4526 20.8529 29.9636 20.8529H30.3174L30.3468 21.1471H21.385V20.8529H21.7682C22.2792 20.8529 22.7116 20.6765 23.0653 20.3235C23.4388 19.951 23.6353 19.5098 23.6549 19V2.70588C23.6353 2.19608 23.4388 1.76471 23.0653 1.41177C22.7116 1.03922 22.2792 0.852941 21.7682 0.852941H21.385V0.558823H30.3468L30.3174 0.852941H29.9636C29.4526 0.852941 29.0104 1.03922 28.637 1.41177C28.2636 1.76471 28.0769 2.19608 28.0769 2.70588V10.2647H37.6283V2.70588C37.6087 2.19608 37.4121 1.76471 37.0387 1.41177C36.685 1.03922 36.2526 0.852941 35.7416 0.852941H35.3584V0.558823H44.3202V0.852941H43.937C43.426 0.852941 42.9838 1.03922 42.6104 1.41177C42.237 1.76471 42.0503 2.19608 42.0503 2.70588V19C42.0503 19.5098 42.237 19.951 42.6104 20.3235C42.9838 20.6765 43.426 20.8529 43.937 20.8529H44.3202V21.1471H35.3584V20.8529H35.7416Z" fill="white"/>
<path d="M46.0545 20.8529C46.5654 20.8529 46.9978 20.6765 47.3516 20.3235C47.725 19.951 47.9215 19.5098 47.9412 19V2.61765C47.9018 2.10784 47.7544 1.73529 47.499 1.5C47.0273 1.06863 46.5458 0.852941 46.0545 0.852941H45.6712V0.558823H56.9619C57.9249 0.558823 58.7209 0.490196 59.3498 0.352942C59.9787 0.196079 60.3619 0.0882353 60.4995 0.0294114V5.17647L60.2047 5.14706V4.82353C60.2047 3.60784 59.7527 2.7451 58.8486 2.2353C58.4163 1.98039 57.9053 1.84314 57.3157 1.82353H52.3631V10.3824H56.2544C56.9816 10.3627 57.581 10.1176 58.0527 9.64706C58.5244 9.15686 58.7602 8.55882 58.7602 7.85294V7.58824H59.055V14.3824H58.7602V14.1471C58.7602 13.4216 58.5244 12.8235 58.0527 12.3529C57.6007 11.8824 57.0209 11.6373 56.3134 11.6176H52.3631V19.8824H56.225C57.6596 19.8824 58.8585 19.4706 59.8215 18.6471C60.8041 17.8235 61.5313 16.6569 62.003 15.1471H62.2978L60.9417 21.1471H45.6712V20.8529H46.0545Z" fill="white"/>
<path d="M28.1826 45.1176H28.6543V45.4118H19.8104V45.1471H20.2526C20.5867 45.1275 20.8716 44.9902 21.1075 44.7353C21.3433 44.4804 21.4416 44.1961 21.4023 43.8824L20.2526 33.2059L14.7104 42.7353C13.9832 43.951 13.6098 45.0392 13.5901 46H13.2954L5.71906 33.2941L4.56936 43.8824C4.53005 44.1961 4.62832 44.4902 4.86415 44.7647C5.09999 45.0196 5.38496 45.1471 5.71906 45.1471H6.16126V45.4118H0V45.1176H0.471675C1.02196 45.1176 1.49364 44.951 1.8867 44.6176C2.29942 44.2843 2.54508 43.8333 2.62369 43.2647L5.07051 24.4118H5.33583L14.4745 39.4118L23.2595 24.4118H23.5248L26.0306 43.2647C26.1289 43.8333 26.3745 44.2843 26.7676 44.6176C27.1803 44.951 27.652 45.1176 28.1826 45.1176Z" fill="white"/>
<path d="M28.8791 45.1176C29.39 45.1176 29.8224 44.9412 30.1762 44.5882C30.5496 44.2157 30.7461 43.7745 30.7658 43.2647V26.8824C30.7265 26.3725 30.5791 26 30.3236 25.7647C29.8519 25.3333 29.3704 25.1176 28.8791 25.1176H28.4958V24.8235H39.7866C40.7496 24.8235 41.5455 24.7549 42.1744 24.6176C42.8033 24.4608 43.1866 24.3529 43.3241 24.2941V29.4412L43.0293 29.4118V29.0882C43.0293 27.8725 42.5773 27.0098 41.6733 26.5C41.2409 26.2451 40.7299 26.1078 40.1403 26.0882H35.1877V34.6471H39.079C39.8062 34.6274 40.4056 34.3824 40.8773 33.9118C41.349 33.4216 41.5848 32.8235 41.5848 32.1176V31.8529H41.8796V38.6471H41.5848V38.4118C41.5848 37.6863 41.349 37.0882 40.8773 36.6176C40.4253 36.1471 39.8455 35.902 39.138 35.8824H35.1877V44.1471H39.0496C40.4842 44.1471 41.6831 43.7353 42.6461 42.9118C43.6287 42.0882 44.3559 40.9216 44.8276 39.4118H45.1224L43.7663 45.4118H28.4958V45.1176H28.8791Z" fill="white"/>
<path d="M56.8069 26.0294V43.2941C56.8266 43.8039 57.0133 44.2353 57.3671 44.5882C57.7405 44.9412 58.1827 45.1176 58.6936 45.1176H59.0474L59.0769 45.4118H50.1151V45.1176H50.4983C50.9896 45.1176 51.4122 44.9412 51.7659 44.5882C52.1393 44.2353 52.3457 43.8137 52.385 43.3235V26.0294H48.4052C47.5012 26.049 46.7838 26.3333 46.2532 26.8824C45.7226 27.4314 45.4573 28.1471 45.4573 29.0294V29.3824H45.1625V24.2647C45.9682 24.598 47.1278 24.7745 48.6411 24.7941H60.5214C61.1306 24.7941 61.789 24.7353 62.4965 24.6176C63.2237 24.5 63.7249 24.3824 64 24.2647V29.3824H63.7052V29.0294C63.7052 27.8137 63.2433 26.951 62.3197 26.4412C61.8873 26.1863 61.3665 26.049 60.7572 26.0294H56.8069Z" fill="white"/>
</svg>

<svg xmlns="http://www.w3.org/2000/svg" width="64" height="46" fill="none"><path fill="#fff" d="M13.68 1.76v17.27a1.87 1.87 0 0 0 1.88 1.82h.36l.03.3H6.98v-.3h.39c.49 0 .91-.17 1.26-.53.38-.35.58-.77.62-1.26V1.76H5.27c-.9.02-1.62.3-2.15.86-.53.55-.8 1.26-.8 2.14v.36h-.29V0c.8.33 1.97.51 3.48.53h11.88A12.09 12.09 0 0 0 20.87 0v5.12h-.3v-.36c0-1.21-.46-2.07-1.38-2.58-.43-.26-.95-.4-1.56-.42h-3.95ZM35.74 20.85c.51 0 .9-.12 1.18-.38.45-.45.69-.93.7-1.44v-7.5h-9.54V19a1.87 1.87 0 0 0 1.89 1.85h.35l.03.3h-8.96v-.3h.38c.5 0 .94-.17 1.3-.53.37-.37.57-.81.58-1.32V2.7a1.81 1.81 0 0 0-.58-1.29 1.72 1.72 0 0 0-1.3-.56h-.38v-.3h8.96l-.03.3h-.36c-.5 0-.95.19-1.32.56-.38.35-.56.79-.56 1.3v7.55h9.55V2.71a1.81 1.81 0 0 0-.6-1.3 1.72 1.72 0 0 0-1.29-.56h-.38v-.3h8.96v.3h-.38c-.51 0-.96.19-1.33.56-.37.35-.56.79-.56 1.3V19a1.87 1.87 0 0 0 1.89 1.85h.38v.3h-8.96v-.3h.38ZM46.05 20.85c.52 0 .95-.17 1.3-.53.38-.37.57-.81.6-1.32V2.62c-.05-.51-.2-.88-.45-1.12a2.14 2.14 0 0 0-1.45-.65h-.38v-.3h11.3c.95 0 1.75-.06 2.38-.2C59.98.2 60.36.1 60.5.03v5.15l-.3-.03v-.33c0-1.21-.45-2.07-1.35-2.58-.43-.26-.94-.4-1.53-.42h-4.96v8.56h3.9a2.54 2.54 0 0 0 1.8-.73c.46-.5.7-1.1.7-1.8V7.6h.3v6.8h-.3v-.24c0-.73-.24-1.33-.7-1.8a2.4 2.4 0 0 0-1.75-.73h-3.95v8.26h3.87c1.43 0 2.63-.4 3.6-1.23a7.25 7.25 0 0 0 2.17-3.5h.3l-1.36 6H45.67v-.3h.38ZM28.18 45.12h.47v.3h-8.84v-.27h.44c.34-.02.62-.16.86-.41.23-.26.33-.54.3-.86l-1.16-10.67-5.54 9.53A6.81 6.81 0 0 0 13.59 46h-.3L5.73 33.3 4.57 43.87c-.04.32.06.61.3.88.23.26.51.39.85.39h.44v.26H0v-.3h.47a2.12 2.12 0 0 0 2.15-1.85l2.45-18.85h.27l9.13 15 8.79-15h.26l2.51 18.85c.1.57.34 1.02.74 1.36.41.33.88.5 1.41.5Z"/><path fill="#fff" d="M28.88 45.12a1.92 1.92 0 0 0 1.89-1.85V26.87c-.04-.5-.2-.88-.45-1.12a2.14 2.14 0 0 0-1.44-.64h-.38v-.3h11.29c.96 0 1.76-.07 2.38-.2.63-.16 1.02-.27 1.15-.33v5.15l-.3-.03v-.32c0-1.22-.44-2.08-1.35-2.59-.43-.25-.94-.4-1.53-.41h-4.95v8.56h3.89a2.54 2.54 0 0 0 1.8-.74c.47-.49.7-1.09.7-1.8v-.26h.3v6.8h-.3v-.24c0-.72-.23-1.32-.7-1.8a2.4 2.4 0 0 0-1.74-.73h-3.95v8.27h3.86c1.43 0 2.63-.41 3.6-1.24a7.25 7.25 0 0 0 2.18-3.5h.3l-1.36 6H28.5v-.3h.38ZM56.8 26.03v17.26a1.87 1.87 0 0 0 1.9 1.83h.35l.03.3h-8.96v-.3h.38c.49 0 .91-.18 1.27-.53.37-.35.58-.78.61-1.27v-17.3h-3.97c-.9.03-1.63.31-2.16.86-.53.55-.8 1.27-.8 2.15v.35h-.29v-5.12c.8.34 1.97.51 3.48.53h11.88a12.08 12.08 0 0 0 3.48-.53v5.12h-.3v-.35c0-1.22-.46-2.08-1.38-2.59-.43-.25-.95-.4-1.56-.41H56.8Z"/></svg>
